!!!!SEGMENT: pl-stab--3a--001-005_dankowski-adalbert--vespere-pastorales-magnificat.krn
!!!cenid: 18xx:3487
!!!COM: Dankowski, Adalbert
!!!COM-rismID: pe30000793
!!!CDT: ~1760-~1836
!!!CNT: Polish
!!!OPR: Vespere Pastorales
!!!OTL: Magnificat
!!!OMV: 005
!!!PDT: 1804
!!!AGN: Sacred; Vespers
!!!SMS-siglum: PL-STAb
!!!SMS-shelfmark: 3a
!!!SMS-shelfwork: 001-005 M
!!!SMS-variant:
!!!SMS-altvar:
!!!NIFC-rismSourceID: 301050554
!!!NIFC-islandoraID: pl-stab:928
!!!URL-pdf-islandora: https://repozytorium.nifc.pl/islandora/object/pl-stab%3A928/datastream/PDF/view
!!!URL-scan: https://polish.musicsources.pl/pl/lokalizacje/galeria/rekopisy/4500 @EN{Scan on Polish Music Sources Website} @PL{Skany w portalu Dziedzictwo Muzyki Polskiej w otwartym dostępie}
!!!ONB-nifc: UWAGA: części Nieszporów: 1. Dixit Dominus, 2. Confitebor, 3. Beatus vir, 4. Laudate pueri, 5. Magnificat, 6. Fecit potentiam, 7. Gloria
!!!AIN: 1 alto 1 bass 2 cor 1 organ 1 soprn 1 tenor 2 violn
!!!OMD:
!!!OMD-mod: Allegro
!!!key: D
**kern	**fba	**dynam	**kern	**dynam	**kern	**dynam	**kern	**text	**kern	**text	**kern	**text	**kern	**text	**kern	**kern
*group4	*	*	*group3	*	*group3	*	*group2	*	*group2	*	*group2	*	*group2	*	*group1	*group1
*part9	*part9	*part9	*part8	*part8	*part7	*part7	*part6	*part6	*part5	*part5	*part4	*part4	*part3	*part3	*part2	*part1
*staff9	*	*	*staff8	*	*staff7	*	*staff6	*staff6	*staff5	*staff5	*staff4	*staff4	*staff3	*staff3	*staff2	*staff1
*I"Organo	*	*	*I"Violino Secondo	*	*I"Violino Primo	*	*I"Baſso	*	*I"Tenor	*	*I"Alto	*	*I"Canto	*	*I"Cornu Secondo Ex G:	*I"Cornu Primo Ex G.
*	*	*	*mI"Violino II	*	*mI"Violino I	*	*mI"Basso	*	*mI"Tenore	*	*	*	*mI"Soprano	*	*mI"Corno II in D	*mI"Corno I in D
*I'org	*	*	*I'vl 2	*	*I'vl 1	*	*I'B	*	*I'T	*	*I'A	*	*I'S	*	*I'cor 2 in D	*I'cor 1 in D
*Iorgan	*	*	*Ivioln	*	*Ivioln	*	*Ibass	*	*Itenor	*	*Ialto	*	*Isoprn	*	*Icor	*Icor
*ICklav	*	*	*ICstr	*	*ICstr	*	*ICvox	*	*ICvox	*	*ICvox	*	*ICvox	*	*ICbras	*ICbras
*IGcont	*	*	*IGacmp	*	*IGacmp	*	*IGcoro	*	*IGcoro	*	*IGcoro	*	*IGcoro	*	*IGacmp	*IGacmp
*clefF4	*	*	*clefG2	*	*clefG2	*	*clefF4	*	*clefC4	*	*clefC3	*	*clefC1	*	*clefG2	*clefG2
*	*	*	*	*	*	*	*	*	*mclefGv2	*	*mclefG2	*	*mclefG2	*	*	*
*	*	*	*	*	*	*	*	*	*	*	*	*	*	*	*ITrd-1c-2	*ITrd-1c-2
*k[f#c#]	*	*	*k[f#c#]	*	*k[f#c#]	*	*k[f#c#]	*	*k[f#c#]	*	*k[f#c#]	*	*k[f#c#]	*	*k[f#c#]	*k[f#c#]
*D:	*	*	*D:	*	*D:	*	*D:	*	*D:	*	*D:	*	*D:	*	*D:	*D:
*M2/4	*	*	*M2/4	*	*M2/4	*	*M2/4	*	*M2/4	*	*M2/4	*	*M2/4	*	*M2/4	*M2/4
=1	=1	=1	=1	=1	=1	=1	=1	=1	=1	=1	=1	=1	=1	=1	=1	=1
!	!	!LO:MO:mod=!LO&colon;DY&colon;ed=brack	!	!LO:MO:mod=!LO&colon;DY&colon;ed=brack	!	!	!	!	!	!	!	!	!	!	!	!
!LO:TX:a:t=tuti:mod=	!	!null	!	!null	!	!	!	!	!	!	!	!	!	!	!	!
!LO:TX:a:t=allo:mod=	!	!LO:MO:null:mod=f	!LO:TX:a:t=allo:mod=	!LO:MO:null:mod=f	!LO:TX:a:t=allo:mod=	!LO:DY:a:t=for.:mod=%s	!LO:TX:a:t=allo:mod=	!	!LO:TX:a:t=allo:mod=	!	!LO:TX:a:t=allo:mod=	!	!LO:TX:a:t=allo:mod=	!	!LO:TX:a:t=allo:mod=	!LO:TX:a:t=allo:mod=
8D\L	.	.	16d/LL	.	16dd\LL	f	8D\L	Ma-	4A\	Ma-	4f#\	Ma-	4dd\	Ma-	4f#/	4dd\
.	.	.	16e/	.	16ee\	.	.	.	.	.	.	.	.	.	.	.
8F#\	6	.	16f#/	.	16ff#\	.	8F#\J	.	.	.	.	.	.	.	.	.
.	.	.	16d/JJ	.	16dd\JJ	.	.	.	.	.	.	.	.	.	.	.
8E\	6	.	16e/LL	.	16dd\LL	.	8E\	-gni-	8A\	-gni-	8g\	-gni-	8cc#\	-gni-	4a/	4ee\
.	.	.	16c#/	.	16cc#\	.	.	.	.	.	.	.	.	.	.	.
8C#\J	6 5	.	16e/	.	16ee\	.	8C#/	-fi-	8A\	-fi-	8g\	-fi-	8ee\	-fi-	.	.
.	.	.	16g/JJ	.	16gg\JJ	.	.	.	.	.	.	.	.	.	.	.
=2	=2	=2	=2	=2	=2	=2	=2	=2	=2	=2	=2	=2	=2	=2	=2	=2
8D\L	.	.	16f#/LL	.	16ff#\LL	.	8D\	-cat	8A\	-cat	8f#\	-cat	8dd\	-cat	4dd\	4ff#\
.	.	.	16a/	.	16aa\	.	.	.	.	.	.	.	.	.	.	.
8F#\	x 6	.	16f#/	.	16ff#\	.	8F#\L	a-	8d\L	a-	8a\L	a-	8dd\L	a-	.	.
.	.	.	16d/JJ	.	16dd\JJ	.	.	.	.	.	.	.	.	.	.	.
8G\	x 6	.	16g/LL	.	16gg\LL	.	8G\J	.	8B\J	.	8g\J	.	8ee\J	.	8dd/L	8gg\L
.	.	.	16e/	.	16ee\	.	.	.	.	.	.	.	.	.	.	.
8A\J	.	.	16d/	.	16dd\	.	8A\	-ni-	8A\	-ni-	8d\	-ni-	8cc#\	-ni-	8a/J	8ee\J
.	.	.	16c#/JJ	.	16cc#\JJ	.	.	.	.	.	.	.	.	.	.	.
=3	=3	=3	=3	=3	=3	=3	=3	=3	=3	=3	=3	=3	=3	=3	=3	=3
8D\L	.	.	16d/LL	.	16dd\LL	.	8D\	-ma	8A\	-ma	8f#\	-ma	8dd\	-ma	4f#/	4dd\
.	.	.	16e/	.	16ee\	.	.	.	.	.	.	.	.	.	.	.
*	*	*	*	*	*	*	*	*ij	*	*ij	*	*ij	*	*ij	*	*
8F#\	x 6	.	16f#/	.	16ff#\	.	8F#\	a-	8A\	a-	8f#\	a-	8dd\	a-	.	.
.	.	.	16d/JJ	.	16dd\JJ	.	.	.	.	.	.	.	.	.	.	.
8E\	x 6	.	16d/LL	.	16dd\LL	.	8E\	-ni-	8A\	-ni-	8g\	-ni-	8cc#\	-ni-	4a/	4ee\
.	.	.	16c#/	.	16cc#\	.	.	.	.	.	.	.	.	.	.	.
8C#\J	6 5	.	16e/	.	16ee\	.	8C#\	-ma	8A\	-ma	8g\	-ma	8ee\	-ma	.	.
*	*	*	*	*	*	*	*	*Xij	*	*Xij	*	*Xij	*	*Xij	*	*
.	.	.	16g/JJ	.	16gg\JJ	.	.	.	.	.	.	.	.	.	.	.
=4	=4	=4	=4	=4	=4	=4	=4	=4	=4	=4	=4	=4	=4	=4	=4	=4
8D\L	.	.	16f#/LL	.	16ff#\LL	.	8D\	me-	8A\	me-	8f#\	me-	8dd\	me-	4dd\	4ff#\
.	.	.	16a/	.	16aa\	.	.	.	.	.	.	.	.	.	.	.
8F#\	6 x	.	16f#/	.	16ff#\	.	8F#\	-a	8d\	-a	8a\	-a	8dd\	-a	.	.
!	!	!	!	!	!	!	!	!	!	!	!	!	!LO:LB:g=original	!	!	!
.	.	.	16d/JJ	.	16dd\JJ	.	.	.	.	.	.	.	.	.	.	.
8G\	6 x	.	16g/LL	.	16gg\LL	.	8G\	Do-	8B\	Do-	8g\	Do-	8ee\	Do-	8ee\L	8gg\L
.	.	.	16e/	.	16ee\	.	.	.	.	.	.	.	.	.	.	.
8A\J	.	.	16d/	.	16dd\	.	8A\	-mi-	8A\	-mi-	8e\	-mi-	8cc#\	-mi-	8a\J	8ee\J
.	.	.	16c#/JJ	.	16cc#\JJ	.	.	.	.	.	.	.	.	.	.	.
!	!	!	!	!	!	!	!LO:LB:g=original	!	!	!	!LO:LB:g=original	!	!	!	!	!
=5	=5	=5	=5	=5	=5	=5	=5	=5	=5	=5	=5	=5	=5	=5	=5	=5
!	!	!	!	!	!	!	!	!	!	!	!	!	!	!	!	!LO:MO:mod=*null:null
*	*	*	*	*	*	*	*	*	*	*	*	*	*	*	*	*2\right
8D\L	.	.	8d/L	.	8dd\L	.	8D\	-num	8A\	-num	8f#\	-num	8dd\	-num	4f#/	2dd\
!	!	!	!	!	!	!	!	!LO:MO:mod=ma-	!	!	!	!LO:MO:mod=ma-	!	!LO:MO:mod=ma-	!	!
8D\	.	.	16f#/L	.	16ff#\L	.	8D\	Ma-	8A\	ma-	8f#\	Ma-	8dd\	Ma-	.	.
.	.	.	16a/JJ	.	16aa\JJ	.	.	.	.	.	.	.	.	.	.	.
!	!	!	!	!	!	!	!	!	!LO:LB:g=original	!	!	!	!	!	!	!
8F#\	6: x	.	16dd\LL	.	16ddd\LL	.	8F#\	-gni-	8A\	-gni-	8a\	-gni-	8dd\	-gni-	4d/	.
.	.	.	16cc#\	.	16ccc#\	.	.	.	.	.	.	.	.	.	.	.
8F#\J	.	.	16b\	.	16bb\	.	8F#\	-fi-	8A\	-fi-	8a\	-fi-	8dd\	-fi-	.	.
.	.	.	16a\JJ	.	16aa\JJ	.	.	.	.	.	.	.	.	.	.	.
!	!	!	!LO:LB:g=original	!	!LO:LB:g=original	!	!	!	!	!	!	!	!	!	!	!
=6	=6	=6	=6	=6	=6	=6	=6	=6	=6	=6	=6	=6	=6	=6	=6	=6
8G\L	.	.	8b\L	.	8bb\L	.	8G\	-cat	8G/	-cat	8b\	-cat	8dd\	-cat	2d/	2dd\
8G\	.	.	16b\L	.	16bb\L	.	8G\	a-	8G/	a-	8b\	a-	8dd\	a-	.	.
.	.	.	16dd\JJ	.	16ddd\JJ	.	.	.	.	.	.	.	.	.	.	.
8F#\	.	.	8a/L	.	8aa\L	.	8F#\	-ni-	8A\	-ni-	8a\	-ni-	8dd\	-ni-	.	.
8F#\J	.	.	16f#/L	.	16ff#\L	.	8F#\	-ma	8A\	-ma	8a\	-ma	8dd\	-ma	.	.
.	.	.	16d/JJ	.	16dd\JJ	.	.	.	.	.	.	.	.	.	.	.
=7	=7	=7	=7	=7	=7	=7	=7	=7	=7	=7	=7	=7	=7	=7	=7	=7
8E\L	6 3	.	16d/LL	.	16dd\LL	.	8E\L	me-	4A\	me-	4g\	me-	8cc#\L	me-	4a/	4ee\
.	.	.	16c#/	.	16cc#\	.	.	.	.	.	.	.	.	.	.	.
8C#\	6 5	.	16e/	.	16ee\	.	8C#\J	.	.	.	.	.	8ee\J	.	.	.
.	.	.	16g/JJ	.	16gg\JJ	.	.	.	.	.	.	.	.	.	.	.
8D\	.	.	16f#/LL	.	16ff#\LL	.	4D\	-a	4A\	-a	4f#\	-a	4dd\	-a	4dd\	4ff#\
.	.	.	16d/	.	16dd\	.	.	.	.	.	.	.	.	.	.	.
8d\J	.	.	16a/	.	16aa\	.	.	.	.	.	.	.	.	.	.	.
.	.	.	16f#/JJ	.	16ff#\JJ	.	.	.	.	.	.	.	.	.	.	.
!LO:LB:g=original	!	!	!	!	!	!	!	!	!	!	!	!	!	!	!LO:LB:g=original	!LO:LB:g=original
=8	=8	=8	=8	=8	=8	=8	=8	=8	=8	=8	=8	=8	=8	=8	=8	=8
!LO:TX:t=P:problem=mixed beam	!	!	!	!	!	!	!	!	!	!	!	!	!	!	!	!
8A\L	x 4	.	8.d/L	.	8.ff#\L	.	8.A\	Do-	8A\	Do-	8f#\	Do-	8.dd\	Do-	4dd\	4ff#\
8A\	.	.	.	.	.	.	.	.	8A\	-mi-	8f#\	-mi-	.	.	.	.
.	.	.	32c#/LL	.	32ee\LL	.	16A\	-mi-	.	.	.	.	16dd\	-mi-	.	.
.	.	.	32d/JJJ	.	32ff#\JJJ	.	.	.	.	.	.	.	.	.	.	.
8AA/	x 3	.	8c#/L	.	8ee\L	.	8AA/	-num	8A\	-num	8e\	-num	8cc#\	-num	4a/	4ee\
!	!	!	!	!	!	!	!LO:SIC:s=8A	!	!	!	!	!	!LO:LB:g=original	!	!	!
8AA/J	.	.	8A/J	.	8a\J	.	8B\	et	8A\	et	8a\	et	8a\	et	.	.
=9	=9	=9	=9	=9	=9	=9	=9	=9	=9	=9	=9	=9	=9	=9	=9	=9
!LO:MO:mod=*null:null	!	!	!	!	!	!	!	!	!	!	!	!	!	!	!	!
*2\right	*	*	*	*	*	*	*	*	*	*	*	*	*	*	*	*
!	!	!	!	!	!	!	!	!LO:MO:mod=ex-	!	!	!	!	!	!	!	!
[<2D\	.	.	8d/L	.	8dd\L	.	8d\L	Ex-	8d\L	ex-	8d\L	ex-	8dd\L	ex-	2d/	2dd\
.	.	.	16d/L	.	16dd\L	.	16d\L	.	16d\L	.	16d\L	.	16dd\L	.	.	.
.	.	.	16c#/JJ	.	16cc#\JJ	.	16c#\JJ	.	16c#\JJ	.	16c#\JJ	.	16cc#\JJ	.	.	.
!	!	!	!	!	!	!	!	!	!	!	!	!	!	!LO:MO:mod=.	!	!
.	.	.	8B/L	.	8b\L	.	8B\	.	8B\	.	8B/	.	8b\	-ul-	.	.
!	!	!	!	!	!	!	!	!LO:MO:mod=-sul-	!	!LO:MO:mod=-sul-	!	!LO:MO:mod=-sul-	!	!LO:MO:mod=-sul-	!	!
.	.	.	8A/J	.	8a\J	.	8A\	-ul-	8A\	-ul-	8A/	-ul-	8a\	-ta-	.	.
!	!	!	!	!	!	!	!LO:LB:g=original	!	!	!	!LO:LB:g=original	!	!	!	!	!
=10	=10	=10	=10	=10	=10	=10	=10	=10	=10	=10	=10	=10	=10	=10	=10	=10
!	!	!	!	!	!LO:TX:t=P:problem=mixed beam	!	!LO:TX:t=P:problem=mixed beam	!	!	!	!LO:TX:t=P:problem=mixed beam	!	!	!LO:MO:null:mod=-ta-	!	!
2D\_<	.	.	8d/L	.	8dd\L	.	8D\L	-ta-	8d\L	-ta-	8d\L	-ta-	8dd\L	.	2d/	2dd\
.	.	.	8f#/	.	8ff#\	.	8F#\	.	8f#\	.	8f#\	.	8ff#\	.	.	.
.	.	.	8a/	.	8aa\	.	8A\	.	8a\	.	8a\	.	8aa\	.	.	.
.	.	.	8A/J	.	8a/J	.	8AA/J	.	8A\J	.	8A/J	.	8a\J	.	.	.
!	!	!	!	!	!	!	!	!	!LO:LB:g=original	!	!	!	!	!	!	!
=11	=11	=11	=11	=11	=11	=11	=11	=11	=11	=11	=11	=11	=11	=11	=11	=11
2D\_<	.	.	8d/L	.	8dd\L	.	8D\	-vit	8d\	-vit	8d\	-vit	8dd\	-vit	2d/	2dd\
!	!	!	!	!	!	!	!	!LO:MO:mod=spi-	!	!	!	!	!	!LO:MO:mod=spi-	!	!
.	.	.	16d/L	.	16dd\L	.	16d\LL	Spi-	16d\LL	spi-	16d\LL	spi-	16dd\LL	Spi-	.	.
.	.	.	16c#/JJ	.	16cc#\JJ	.	16c#\JJ	.	16c#\JJ	.	16c#\JJ	.	16cc#\JJ	.	.	.
.	.	.	8B/L	.	8b\L	.	8B\	-ri-	8B\	-ri-	8B/	-ri-	8b\	-ri-	.	.
.	.	.	8A/J	.	8a\J	.	8A\	-tus	8A\	-tus	8A/	-tus	8a\	-tus	.	.
=12	=12	=12	=12	=12	=12	=12	=12	=12	=12	=12	=12	=12	=12	=12	=12	=12
!	!	!	!	!	!LO:TX:t=P:problem=mixed beam	!	!LO:TX:t=P:problem=mixed beam	!	!	!	!LO:TX:t=P:problem=mixed beam	!	!	!	!	!
2D\_<	.	.	8d/L	.	8dd\L	.	8D\L	me-	8d\L	me-	8d\L	me-	8dd\L	me-	2d/	2dd\
.	.	.	8f#/	.	8ff#\	.	8F#\	.	8f#\	.	8f#\	.	8ff#\	.	.	.
.	.	.	8a/	.	8aa\	.	8A\	.	8a\	.	8a\	.	8aa\	.	.	.
.	.	.	8A/J	.	8a/J	.	8AA/J	.	8A\J	.	8A/J	.	8a\J	.	.	.
!	!	!	!	!	!LO:LB:g=original	!	!	!	!	!	!	!	!	!	!	!
=13	=13	=13	=13	=13	=13	=13	=13	=13	=13	=13	=13	=13	=13	=13	=13	=13
!LO:SIC:s=8DL]	!	!	!	!	!	!	!	!	!	!	!	!	!	!	!	!
8D\L]|	.	.	8d/L	.	8dd\L	.	8D\	-us	8d\	-us	8d\	-us	8dd\	-us	8d/	8dd\
!	!	!	!	!	!	!	!	!	!	!	!	!	!LO:LB:g=original	!	!	!
8D\|	.	.	8d/	.	8dd\	.	8D\	in	8d\	in	8d\	in	8dd\	in	8r	8r
8F#\|	.	.	8f#/	.	8ff#\	.	8F#\	De-	8f#\	De-	8f#\	De-	8ff#\	De-	4r	4r
8G#X\J|	.	.	8g#X/J	.	8gg#X\J	.	8G#X\	-o	8g#X\	-o	8g#X\	-o	8gg#X\	-o	.	.
!	!	!	!LO:LB:g=original	!	!	!	!	!	!	!	!	!	!	!	!	!
=14	=14	=14	=14	=14	=14	=14	=14	=14	=14	=14	=14	=14	=14	=14	=14	=14
!	!	!	!	!	!	!	!	!LO:MO:mod=sa-	!	!	!	!	!	!	!	!
8A\L|	.	.	8a/L	.	8aa\L	.	8A\L	Sa-	8a\L	sa-	8a\L	sa-	8aa\L	sa-	1r	1r
!LO:SIC:s=16G#L	!	!	!	!	!	!	!	!	!	!	!	!	!LO:SIC:s=16gg#L	!	!	!
(>16G#X\L	.	.	16g#X/L	.	16gg#X\L	.	16G#X\L	.	16g#X\L	.	16g#X\L	.	16gg\L	.	.	.
!LO:SIC:s=16F#JJ	!	!	!	!	!	!	!	!	!	!	!	!	!	!	!	!
16F#\JJ)	.	.	16f#/JJ	.	16ff#\JJ	.	16F#\JJ	.	16f#\JJ	.	16f#\JJ	.	16ff#\JJ	.	.	.
8E\L|	.	.	8e/L	.	8ee\L	.	8E\	.	8e\	.	8e\	.	8ee\	.	.	.
8A\J|	.	.	8a/J	.	8aa\J	.	8A\	-lu-	8a\	-lu-	8a\	-lu-	8aa\	-lu-	.	.
!	!	!	!	!	!	!	!	!	!	!	!LO:LB:g=original	!	!	!	!	!
=15	=15	=15	=15	=15	=15	=15	=15	=15	=15	=15	=15	=15	=15	=15	=15	=15
8F#\L|	.	.	8f#/L	.	8ff#\L	.	8F#\L	-ta-	8f#\L	-ta-	8f#\L	-ta-	8ff#\L	-ta-	.	.
8E\|	.	.	8e/	.	8ee\	.	8E\J	.	8e\J	.	8e\J	.	8ee\J	.	.	.
8D\|	.	.	8d/	.	8dd\	.	8D\L	-ri	8d\L	-ri	8d\L	-ri	8dd\L	-ri	.	.
8E\J|	.	.	8e/J	.	8ee\J	.	8E\J	.	8e\J	.	8e\J	.	8ee\J	.	.	.
!	!	!	!	!	!	!	!LO:PB:g=original	!	!	!	!	!	!	!	!	!
=16	=16	=16	=16	=16	=16	=16	=16	=16	=16	=16	=16	=16	=16	=16	=16	=16
4C#/	.	.	8c#/L	.	8cc#\L	.	4C#/	me-	4c#\	me-	4c#/	me-	4cc#\	me-	2r	2r
.	.	.	16B/L	.	16b\L	.	.	.	.	.	.	.	.	.	.	.
.	.	.	16c#/JJ	.	16cc#\JJ	.	.	.	.	.	.	.	.	.	.	.
4AA/	.	.	4A/	.	4a/	.	4AA/	-o	4A\	-o	4A/	-o	4a\	-o	.	.
!	!	!	!	!	!	!	!	!	!LO:LB:g=original	!	!	!	!	!	!	!
=17	=17	=17	=17	=17	=17	=17	=17	=17	=17	=17	=17	=17	=17	=17	=17	=17
*^	*	*	*	*	*	*	*	*	*	*	*	*	*	*	*	*
*	*	*	*	*tremolo	*	*	*	*	*	*	*	*	*	*	*	*	*
!	!	!	!	!	!	!	!	!	!LO:MO:mod=et	!	!	!	!	!	!	!	!
8A/L	[<2AA\	.	.	8c#/L 8e/	.	16aa\LL	.	4A\	Et	4e\	et	4a\	et	4cc#\	et	2a/	2ee\
.	.	.	.	.	.	16gg#X\	.	.	.	.	.	.	.	.	.	.	.
8A/	.	.	.	8c#/ 8e/	.	16aa\	.	.	.	.	.	.	.	.	.	.	.
.	.	.	.	.	.	16bb\JJ	.	.	.	.	.	.	.	.	.	.	.
!	!	!	!	!	!	!	!	!	!LO:MO:mod=ex-	!	!	!	!	!	!	!	!
8A/	.	.	.	8c#/ 8e/	.	8ccc#\L	.	8A\	e-	8e\	ex-	8a\	ex-	8cc#\	ex-	.	.
!	!	!	!	!	!	!	!	!	!LO:MO:mod=-sul-	!	!LO:MO:mod=-sul-	!	!LO:MO:mod=-sul-	!	!LO:MO:mod=-sul-	!	!
8A/J	.	.	.	8c#/J 8e/	.	16ccc#\L	.	8A\	-xul-	8e\	-ul-	8a\	-ul-	8cc#\	-ul-	.	.
.	.	.	.	.	.	16bb\JJ	.	.	.	.	.	.	.	.	.	.	.
!LO:LB:g=original	!LO:LB:g=original	!	!	!	!	!	!	!	!	!	!	!	!	!	!	!	!
=18	=18	=18	=18	=18	=18	=18	=18	=18	=18	=18	=18	=18	=18	=18	=18	=18	=18
8A/L	2AA\_<	.	.	8c#/L 8e/	.	16aa\LL	.	4A\	-ta-	4e\	-ta-	4a\	-ta-	4cc#\	-ta-	2a/	2ee\
.	.	.	.	.	.	16bb\	.	.	.	.	.	.	.	.	.	.	.
8A/	.	.	.	8c#/ 8e/	.	16ccc#\	.	.	.	.	.	.	.	.	.	.	.
.	.	.	.	.	.	16aa\JJ	.	.	.	.	.	.	.	.	.	.	.
8A/	.	.	.	8c#/ 8e/	.	8ee\L	.	4A\	-vit	4e\	-vit	4a\	-vit	4cc#\	-vit	.	.
8A/J	.	.	.	8c#/J 8e/	.	16ee\L	.	.	.	.	.	.	.	.	.	.	.
.	.	.	.	.	.	16gg#X\JJ	.	.	.	.	.	.	.	.	.	.	.
!	!	!	!	!	!	!	!	!	!	!	!	!	!	!LO:LB:g=original	!	!	!
=19	=19	=19	=19	=19	=19	=19	=19	=19	=19	=19	=19	=19	=19	=19	=19	=19	=19
!	!	!	!	!	!	!	!	!	!LO:MO:mod=spi-	!	!LO:MO:mod=spi-	!	!LO:MO:mod=spi-	!	!LO:MO:mod=spi-	!	!
8A/L	2AA\_<	.	.	8c#/L 8e/	.	16aa\LL	.	4A\	Spi-	4e\	Spi-	4a\	Spi-	4cc#\	Spi-	2a/	2ee\
.	.	.	.	.	.	16gg#X\	.	.	.	.	.	.	.	.	.	.	.
8A/	.	.	.	8c#/ 8e/	.	16aa\	.	.	.	.	.	.	.	.	.	.	.
.	.	.	.	.	.	16bb\JJ	.	.	.	.	.	.	.	.	.	.	.
8A/	.	.	.	8c#/ 8e/	.	16ccc#\LL	.	8A\	-ri-	8e\	-ri-	8a\	-ri-	8cc#\	-ri-	.	.
.	.	.	.	.	.	16ddd\	.	.	.	.	.	.	.	.	.	.	.
8A/J	.	.	.	8c#/J 8e/	.	16ccc#\	.	8A\	-tus	8e\	-tus	8a\	-tus	8cc#\	-tus	.	.
.	.	.	.	.	.	16bb\JJ	.	.	.	.	.	.	.	.	.	.	.
!	!	!	!	!	!	!LO:LB:g=original	!	!	!	!	!	!	!	!	!	!	!
=20	=20	=20	=20	=20	=20	=20	=20	=20	=20	=20	=20	=20	=20	=20	=20	=20	=20
8A/L	2AA\]	.	.	8c#/L 8e/	.	8aa\L	.	4A\	me-	4e\	me-	4a\	me-	4cc#\	me-	2a/	2ee\
8A/	.	.	.	8c#/ 8e/	.	16bb\L	.	.	.	.	.	.	.	.	.	.	.
.	.	.	.	.	.	16ccc#\JJ	.	.	.	.	.	.	.	.	.	.	.
8A/	.	.	.	8c#/ 8e/	.	8aa\L	.	8A\	-us	8e\	-us	8a\	-us	8cc#\	-us	.	.
8A/J	.	.	.	8c#/J 8e/	.	8ee\J	.	8A\	in	8e\	in	8a\	in	8cc#\	in	.	.
*	*	*	*	*Xtremolo	*	*	*	*	*	*	*	*	*	*	*	*	*
*v	*v	*	*	*	*	*	*	*	*	*	*	*	*	*	*	*	*
!	!	!	!	!	!	!	!	!	!	!	!LO:LB:g=original	!	!	!	!	!
=21	=21	=21	=21	=21	=21	=21	=21	=21	=21	=21	=21	=21	=21	=21	=21	=21
8D\L	6 x	.	16b\LL	.	16bb\LL	.	4D\	De-	4f#\	De-	4b\	De-	4dd\	De-	4dd\	4ff#\
.	.	.	16cc#\	.	16ccc#\	.	.	.	.	.	.	.	.	.	.	.
8D\	.	.	16b\	.	16bb\	.	.	.	.	.	.	.	.	.	.	.
.	.	.	16a\JJ	.	16aa\JJ	.	.	.	.	.	.	.	.	.	.	.
8E\	# x	.	8g#X/L	.	8gg#X\L	.	4E\	-o	4e\	-o	4g#X\	-o	4b\	-o	4ee\	4ee\
8E\J	.	.	16g#/L	.	16gg#\L	.	.	.	.	.	.	.	.	.	.	.
.	.	.	16e/JJ	.	16ee\JJ	.	.	.	.	.	.	.	.	.	.	.
!	!	!	!	!	!	!	!	!	!	!	!	!	!	!	!LO:LB:g=original	!LO:LB:g=original
=22	=22	=22	=22	=22	=22	=22	=22	=22	=22	=22	=22	=22	=22	=22	=22	=22
*tremolo	*	*	*	*	*	*	*	*	*	*	*	*	*	*	*	*
!	!	!	!	!	!	!	!	!LO:MO:mod=sa-	!	!LO:MO:mod=sa-	!	!LO:MO:mod=sa-	!	!LO:MO:mod=sa-	!	!
8AA/L	.	.	16a/LL	.	16aa\LL	.	4A\	Sa-	4e\	Sa-	4a\	Sa-	4cc#\	Sa-	4a/	4ee\
.	.	.	16g#X/	.	16gg#X\	.	.	.	.	.	.	.	.	.	.	.
8AA/	.	.	16a/	.	16aa\	.	.	.	.	.	.	.	.	.	.	.
.	.	.	16b/JJ	.	16bb\JJ	.	.	.	.	.	.	.	.	.	.	.
8AA/	.	.	16cc#\LL	.	16ccc#\LL	.	4A\	-lu-	4e\	-lu-	4a\	-lu-	4cc#\	-lu-	4a/	4ee\
.	.	.	16dd\	.	16ddd\	.	.	.	.	.	.	.	.	.	.	.
8AA/J	.	.	16cc#\	.	16ccc#\	.	.	.	.	.	.	.	.	.	.	.
.	.	.	16a\JJ	.	16aa\JJ	.	.	.	.	.	.	.	.	.	.	.
*Xtremolo	*	*	*	*	*	*	*	*	*	*	*	*	*	*	*	*
!	!	!	!LO:LB:g=original	!	!	!	!	!	!	!	!	!	!	!	!	!
=23	=23	=23	=23	=23	=23	=23	=23	=23	=23	=23	=23	=23	=23	=23	=23	=23
8D\L	6 x	.	16b\LL	.	16bb\LL	.	8D\	-ta-	8f#\	-ta-	8b\	-ta-	8dd\	-ta-	4dd\	4ff#\
.	.	.	16cc#\	.	16ccc#\	.	.	.	.	.	.	.	.	.	.	.
8D\	.	.	16b\	.	16bb\	.	8D\	-ri	8f#\	-ri	8b\	-ri	8dd\	-ri	.	.
.	.	.	16a\JJ	.	16aa\JJ	.	.	.	.	.	.	.	.	.	.	.
8E\	# x	.	8g#X/L	.	8gg#X\L	.	4E\	me-	4e\	me-	4g#X\	me-	4b\	me-	4ee\	4ee\
8E\J	.	.	16g#/L	.	16gg#\L	.	.	.	.	.	.	.	.	.	.	.
.	.	.	16e/JJ	.	16ee\JJ	.	.	.	.	.	.	.	.	.	.	.
!	!	!	!	!	!	!	!LO:LB:g=original	!	!LO:LB:g=original	!	!	!	!	!	!	!
=24	=24	=24	=24	=24	=24	=24	=24	=24	=24	=24	=24	=24	=24	=24	=24	=24
!	!	!	!LO:SIC:s=[2c# [2e	!	!	!	!	!	!	!	!	!	!	!	!	!
[<2AA/	.	.	2c#/ [>2e/	.	16aa\LL	.	4A\	-o	4e\	-o	4a\	-o	4cc#\	-o	2a/	2ee\
.	.	.	.	.	16ee\	.	.	.	.	.	.	.	.	.	.	.
.	.	.	.	.	16aa\	.	.	.	.	.	.	.	.	.	.	.
.	.	.	.	.	16bb\JJ	.	.	.	.	.	.	.	.	.	.	.
.	.	.	.	.	8ccc#\L	.	4r	.	4r	.	4r	.	4r	.	.	.
.	.	.	.	.	16ccc#\L	.	.	.	.	.	.	.	.	.	.	.
.	.	.	.	.	16aa\JJ	.	.	.	.	.	.	.	.	.	.	.
=25	=25	=25	=25	=25	=25	=25	=25	=25	=25	=25	=25	=25	=25	=25	=25	=25
!	!	!	!LO:SIC:s=2c#_ 2e_	!	!	!	!	!	!	!	!	!	!	!	!	!
2AA/_<	.	.	2c#/ 2e/_<	.	16aa\LL	.	0r	.	0r	.	0r	.	1r	.	2a/	2ee\
.	.	.	.	.	16gg#X\	.	.	.	.	.	.	.	.	.	.	.
.	.	.	.	.	16ff#\	.	.	.	.	.	.	.	.	.	.	.
.	.	.	.	.	16ee\JJ	.	.	.	.	.	.	.	.	.	.	.
.	.	.	.	.	8aa\L	.	.	.	.	.	.	.	.	.	.	.
.	.	.	.	.	16bb\L	.	.	.	.	.	.	.	.	.	.	.
.	.	.	.	.	16ccc#\JJ	.	.	.	.	.	.	.	.	.	.	.
!	!	!	!	!	!LO:LB:g=original	!	!	!	!	!	!	!	!	!	!	!
=26	=26	=26	=26	=26	=26	=26	=26	=26	=26	=26	=26	=26	=26	=26	=26	=26
!	!	!	!LO:SIC:s=2c#_ 2e_	!	!	!	!	!	!	!	!	!	!	!	!	!
2AA/_<	.	.	2c#/ 2e_>/	.	16aa\LL	.	.	.	.	.	.	.	.	.	2a/	2ee\
.	.	.	.	.	16ee\	.	.	.	.	.	.	.	.	.	.	.
.	.	.	.	.	16aa\	.	.	.	.	.	.	.	.	.	.	.
.	.	.	.	.	16bb\JJ	.	.	.	.	.	.	.	.	.	.	.
.	.	.	.	.	8ccc#\L	.	.	.	.	.	.	.	.	.	.	.
.	.	.	.	.	16ccc#\L	.	.	.	.	.	.	.	.	.	.	.
.	.	.	.	.	16aa\JJ	.	.	.	.	.	.	.	.	.	.	.
=27	=27	=27	=27	=27	=27	=27	=27	=27	=27	=27	=27	=27	=27	=27	=27	=27
!	!	!	!LO:SIC:s=2c#] 2e]	!	!	!	!	!	!	!	!	!	!	!	!	!
2AA/]	.	.	2c#/ 2e]	.	16aa\LL	.	.	.	.	.	.	.	2r	.	2a/	2ee\
.	.	.	.	.	16gg#X\	.	.	.	.	.	.	.	.	.	.	.
.	.	.	.	.	16ff#\	.	.	.	.	.	.	.	.	.	.	.
.	.	.	.	.	16ee\JJ	.	.	.	.	.	.	.	.	.	.	.
.	.	.	.	.	8aa\L	.	.	.	.	.	.	.	.	.	.	.
.	.	.	.	.	8ee\J	.	.	.	.	.	.	.	.	.	.	.
!	!	!	!	!	!	!	!	!	!	!	!	!	!LO:LB:g=original	!	!	!
=28	=28	=28	=28	=28	=28	=28	=28	=28	=28	=28	=28	=28	=28	=28	=28	=28
!	!	!	!	!LO:MO:mod=!LO&colon;DY&colon;ed=brack	!	!	!	!	!	!	!	!	!	!	!	!
!	!	!	!	!null	!	!	!	!	!	!	!	!	!LO:MO:mod=!LO&colon;TX&colon;a&colon;i&colon;t=Solo	!	!	!
!LO:TX:a:t=Solo:rj:mod=	!	!LO:DY:a:t=p&colon;:mod=%s	!	!LO:MO:null:mod=p	!LO:TX:a:t=Solo:rj:mod=	!LO:DY:a:t=p.:mod=%s	!	!	!	!	!	!	!LO:TX:a:t=Solo	!LO:MO:mod=qui-	!	!
8A\L	.	p	8c#/L 8e/	.	(>8.cc#\L	p	.	.	.	.	.	.	8.cc#\L	Qui-	0r	0r
8A\	.	.	8c#/ 8e/	.	.	.	.	.	.	.	.	.	.	.	.	.
.	.	.	.	.	16ee\Jk)	.	.	.	.	.	.	.	16ee\Jk	.	.	.
8G#X\	6 5	.	8B/ 8e/	.	(>8.b\L	.	.	.	.	.	.	.	8b\	-a	.	.
8G#\J	.	.	8B/J 8e/	.	.	.	.	.	.	.	.	.	16b\LL	res-	.	.
.	.	.	.	.	16ee\Jk)	.	.	.	.	.	.	.	16ee\JJ	.	.	.
!LO:LB:g=original	!	!	!	!	!	!	!	!	!	!	!	!	!	!	!	!
=29	=29	=29	=29	=29	=29	=29	=29	=29	=29	=29	=29	=29	=29	=29	=29	=29
*tremolo	*	*	*tremolo	*	*	*	*	*	*	*	*	*	*	*	*	*
8A\L	.	.	8c#/L 8e/	.	(>8.cc#\L	.	0r	.	0r	.	0r	.	8.cc#\L	-pe-	.	.
8A\	.	.	8c#/ 8e/	.	.	.	.	.	.	.	.	.	.	.	.	.
.	.	.	.	.	16ee\Jk)	.	.	.	.	.	.	.	16ee\Jk	.	.	.
8A\	.	.	8c#/ 8e/	.	16a/LL	.	.	.	.	.	.	.	16a\LL	-xit	.	.
.	.	.	.	.	16g#X/	.	.	.	.	.	.	.	16g#X\JJ	.	.	.
8A\J	.	.	8c#/J 8e/	.	16a/	.	.	.	.	.	.	.	16a\LL	hu-	.	.
.	.	.	.	.	16b/JJ	.	.	.	.	.	.	.	16b\JJ	.	.	.
*Xtremolo	*	*	*Xtremolo	*	*	*	*	*	*	*	*	*	*	*	*	*
=30	=30	=30	=30	=30	=30	=30	=30	=30	=30	=30	=30	=30	=30	=30	=30	=30
8A\L	.	.	8c#/L 8e/	.	(>8.cc#\L	.	.	.	.	.	.	.	8.cc#\L	-mi-	.	.
8A\	.	.	8c#/ 8e/	.	.	.	.	.	.	.	.	.	.	.	.	.
.	.	.	.	.	16ee\Jk)	.	.	.	.	.	.	.	16ee\Jk	.	.	.
8G#X\	6 x	.	8B/ 8e/	.	(>8.b\L	.	.	.	.	.	.	.	8.b\L	-li-	.	.
8G#\J	.	.	8B/J 8e/	.	.	.	.	.	.	.	.	.	.	.	.	.
.	.	.	.	.	16ee\Jk)	.	.	.	.	.	.	.	16ee\Jk	.	.	.
=31	=31	=31	=31	=31	=31	=31	=31	=31	=31	=31	=31	=31	=31	=31	=31	=31
*tremolo	*	*	*tremolo	*	*	*	*	*	*	*	*	*	*	*	*	*
8A\L	.	.	8c#/L 8e/	.	(>8.cc#\L	.	.	.	.	.	.	.	8.cc#\L	-ta-	.	.
8A\	.	.	8c#/ 8e/	.	.	.	.	.	.	.	.	.	.	.	.	.
.	.	.	.	.	16ee\Jk)	.	.	.	.	.	.	.	16ee\Jk	.	.	.
8A\	.	.	8c#/ 8e/	.	8a\L	.	.	.	.	.	.	.	8a\	-tem	.	.
8A\J	.	.	8c#/J 8e/	.	16cc#\L	.	.	.	.	.	.	.	16cc#\LL	an-	.	.
.	.	.	.	.	16ee\JJ	.	.	.	.	.	.	.	16ee\JJ	.	.	.
=32	=32	=32	=32	=32	=32	=32	=32	=32	=32	=32	=32	=32	=32	=32	=32	=32
8G#X\L	6 5	.	8B/L 8e/	.	16dd\LL	.	.	.	.	.	.	.	16dd\LL	.	0r	0r
.	.	.	.	.	16ee\	.	.	.	.	.	.	.	16ee\	.	.	.
8G#\	.	.	8B/ 8e/	.	16dd\	.	.	.	.	.	.	.	16dd\	.	.	.
.	.	.	.	.	16cc#\JJ	.	.	.	.	.	.	.	16cc#\JJ	.	.	.
!	!	!	!	!	!	!	!	!	!	!	!	!	!LO:LB:g=original	!	!	!
8G#\	.	.	8B/ 8e/	.	8b/L	.	.	.	.	.	.	.	8b\L	.	.	.
8G#\J	.	.	8B/J 8e/	.	16g#X/L	.	.	.	.	.	.	.	16g#X\L	.	.	.
.	.	.	.	.	16e/JJ	.	.	.	.	.	.	.	16e\JJ	.	.	.
!LO:MO:mod=*null:null	!	!	!	!	!	!	!	!	!	!	!	!	!	!	!	!
*Xtremolo	*	*	*	*	*	*	*	*	*	*	*	*	*	*	*	*
!	!	!	!	!	!LO:LB:g=original	!	!	!	!	!	!	!	!	!	!	!
=33	=33	=33	=33	=33	=33	=33	=33	=33	=33	=33	=33	=33	=33	=33	=33	=33
8A\L	.	.	8c#/L 8e/	.	16a\LL	.	0r	.	0r	.	0r	.	16a\LL	.	.	.
.	.	.	.	.	16b\	.	.	.	.	.	.	.	16b\	.	.	.
8A\	.	.	8c#/ 8e/	.	16cc#\	.	.	.	.	.	.	.	16cc#\	.	.	.
.	.	.	.	.	16dd\JJ	.	.	.	.	.	.	.	16dd\JJ	.	.	.
8A\	.	.	8c#/ 8e/	.	8ee\L	.	.	.	.	.	.	.	8ee\L	.	.	.
8A\J	.	.	8c#/J 8e/	.	16ee\L	.	.	.	.	.	.	.	16ee\L	.	.	.
.	.	.	.	.	16cc#\JJ	.	.	.	.	.	.	.	16cc#\JJ	.	.	.
!	!	!	!LO:MO:mod=*null:null	!	!	!	!	!	!	!	!	!	!	!	!	!
*	*	*	*Xtremolo	*	*	*	*	*	*	*	*	*	*	*	*	*
!	!	!	!LO:LB:g=original	!	!	!	!	!	!	!	!	!	!	!	!	!
=34	=34	=34	=34	=34	=34	=34	=34	=34	=34	=34	=34	=34	=34	=34	=34	=34
!LO:MO:mod=*null:null	!	!	!	!	!	!	!	!	!	!	!	!	!	!	!	!
*tremolo	*	*	*	*	*	*	*	*	*	*	*	*	*	*	*	*
!	!	!	!LO:TX:t=P:problem=brak taktu nr 34	!	!	!	!	!	!	!	!	!	!	!	!	!
!	!	!	!LO:MO:mod=8BL@ 8e@	!	!	!	!	!	!	!	!	!	!	!	!	!
8G#X\L	6 5	.	2ryy	.	16dd\LL	.	.	.	.	.	.	.	16dd\LL	.	.	.
.	.	.	.	.	16ee\	.	.	.	.	.	.	.	16ee\	.	.	.
!	!	!	!LO:MO:null:mod=8B@ 8e@	!	!	!	!	!	!	!	!	!	!	!	!	!
8G#\	.	.	.	.	16dd\	.	.	.	.	.	.	.	16dd\	.	.	.
.	.	.	.	.	16cc#\JJ	.	.	.	.	.	.	.	16cc#\JJ	.	.	.
!	!	!	!LO:MO:null:mod=8B@ 8e@	!	!	!	!	!	!	!	!	!	!	!LO:MO:mod=-cil-	!	!
8G#\	.	.	.	.	8b/L	.	.	.	.	.	.	.	8b\	-ci-	.	.
!	!	!	!LO:MO:null:mod=8BJ@ 8e@	!	!	!	!	!	!	!	!	!	!	!LO:MO:mod=-lae	!	!
8G#\J	.	.	.	.	16g#X/L	.	.	.	.	.	.	.	16g#X/LL	-l-	.	.
!	!	!	!	!	!	!	!	!	!	!	!	!	!	!LO:MO:mod=.	!	!
.	.	.	.	.	16e/JJ	.	.	.	.	.	.	.	16e/JJ	-lae	.	.
!	!	!	!LO:MO:mod=*Xtremolo	!	!	!	!	!	!	!	!	!	!	!	!	!
*Xtremolo	*	*	*null	*	*	*	*	*	*	*	*	*	*	*	*	*
=35	=35	=35	=35	=35	=35	=35	=35	=35	=35	=35	=35	=35	=35	=35	=35	=35
4A\	.	.	4c#/ 4e/	.	8a/L	.	.	.	.	.	.	.	4a\	su-	.	.
.	.	.	.	.	16b/L	.	.	.	.	.	.	.	.	.	.	.
.	.	.	.	.	16cc#/JJ	.	.	.	.	.	.	.	.	.	.	.
4AA/	.	.	4c#/ 4e/	.	4a/	.	.	.	.	.	.	.	4a\	-ae	.	.
=36	=36	=36	=36	=36	=36	=36	=36	=36	=36	=36	=36	=36	=36	=36	=36	=36
8r	.	.	8r	.	4.cc#\	.	.	.	.	.	.	.	4.cc#\	ec-	0r	0r
16A\LL	.	.	8e/L	.	.	.	.	.	.	.	.	.	.	.	.	.
!LO:SIC:s=16G#JJ	!	!	!	!	!	!	!	!	!	!	!	!	!	!	!	!
16G\JJ	.	.	.	.	.	.	.	.	.	.	.	.	.	.	.	.
8A\L	.	.	8a/	.	.	.	.	.	.	.	.	.	.	.	.	.
!	!	!	!	!	!LO:SIC:s=8dd#	!	!	!	!	!	!	!	!	!	!	!
8F#\J	6 3	.	8a/J	.	8cc#X\	.	.	.	.	.	.	.	8dd#X\	-ce	.	.
!	!	!	!	!	!	!	!	!	!	!	!	!	!LO:PB:g=original	!	!	!
=37	=37	=37	=37	=37	=37	=37	=37	=37	=37	=37	=37	=37	=37	=37	=37	=37
8Gn\L	6 x	.	8b\L	.	16ee\LL	.	0r	.	0r	.	0r	.	16ee\LL	e-	.	.
!	!	!	!	!	!LO:SIC:s=16gg	!	!	!	!	!	!	!	!LO:SIC:s=16gg	!	!	!
.	.	.	.	.	16ggn\	.	.	.	.	.	.	.	16ggn\	.	.	.
8D#X\	6 5	.	8b\	.	16ff#\	.	.	.	.	.	.	.	16ff#\	.	.	.
.	.	.	.	.	16aa\JJ	.	.	.	.	.	.	.	16aa\JJ	.	.	.
8E\J	x n	.	8b\J	.	8gg\L	.	.	.	.	.	.	.	8gg\	-nim	.	.
8r	.	.	8r	.	16gg\L	.	.	.	.	.	.	.	16gg\LL	ex	.	.
.	.	.	.	.	16ee\JJ	.	.	.	.	.	.	.	16ee\JJ	.	.	.
=38	=38	=38	=38	=38	=38	=38	=38	=38	=38	=38	=38	=38	=38	=38	=38	=38
8r	.	.	8r	.	4.b\	.	.	.	.	.	.	.	4.b\	hoc	.	.
16G\LL	.	.	8d/L	.	.	.	.	.	.	.	.	.	.	.	.	.
16F#\JJ	.	.	.	.	.	.	.	.	.	.	.	.	.	.	.	.
8G\L	6 3	.	8g/	.	.	.	.	.	.	.	.	.	.	.	.	.
8E\J	.	.	8g/J	.	8cc#\	.	.	.	.	.	.	.	8cc#\	be-	.	.
!LO:LB:g=original	!	!	!	!	!	!	!	!	!	!	!	!	!	!	!	!
=39	=39	=39	=39	=39	=39	=39	=39	=39	=39	=39	=39	=39	=39	=39	=39	=39
!	!	!	!	!	!	!	!	!	!	!	!	!	!LO:MO:mod=16ddLL	!	!	!
8F#\L	6 x	.	8a/L	.	16ddn\LL	.	.	.	.	.	.	.	16ddn\LL	-a-	.	.
.	.	.	.	.	16ff#\	.	.	.	.	.	.	.	16ff#\	.	.	.
8C#\	6 5	.	8a/	.	16ee\	.	.	.	.	.	.	.	16ee\	.	.	.
.	.	.	.	.	16gg\JJ	.	.	.	.	.	.	.	16gg\JJ	.	.	.
!LO:SIC:s=8DJ	!	!	!	!	!	!	!	!	!	!	!	!	!	!	!	!
8Dn\J	.	.	8a/J	.	8ff#\L	.	.	.	.	.	.	.	8ff#\	-tam	.	.
8r	.	.	8r	.	8dd\J	.	.	.	.	.	.	.	16ff#\LL	me-	.	.
.	.	.	.	.	.	.	.	.	.	.	.	.	16dd\JJ	.	.	.
!	!	!	!	!	!LO:LB:g=original	!	!	!	!	!	!	!	!	!	!	!
=40	=40	=40	=40	=40	=40	=40	=40	=40	=40	=40	=40	=40	=40	=40	=40	=40
4C#/	6 5	.	16e/LL	.	16ee\LL	.	.	.	.	.	.	.	16ee\LL	-di-	2r	2r
.	.	.	16f#/	.	16ff#\	.	.	.	.	.	.	.	16ff#\	.	.	.
.	.	.	16g/	.	16gg\	.	.	.	.	.	.	.	16gg\	.	.	.
.	.	.	16e/JJ	.	16ee\JJ	.	.	.	.	.	.	.	16ee\JJ	.	.	.
8D\	.	.	8f#/L	.	8ff#\L	.	.	.	.	.	.	.	8ff#\	.	.	.
8r	.	.	16f#/L	.	16ff#\L	.	.	.	.	.	.	.	16ff#\LL	-cent	.	.
.	.	.	16d/JJ	.	16dd\JJ	.	.	.	.	.	.	.	16dd\JJ	.	.	.
=41	=41	=41	=41	=41	=41	=41	=41	=41	=41	=41	=41	=41	=41	=41	=41	=41
!!LO:TX:a:t= :mod=Tutti
!	!	!LO:MO:mod=!LO&colon;DY&colon;ed=brack	!	!	!	!	!	!	!	!	!	!	!	!	!	!
!	!	!null	!	!	!	!	!	!	!	!	!	!	!	!	!	!
!LO:TX:a:t=tutti:rj:mod=	!	!LO:MO:null:mod=f	!	!LO:DY:a:t=for:mod=%s	!	!LO:DY:a:t=for.:mod=%s	!	!	!	!	!	!	!	!	!	!
4G\	4 2	.	8c#/L	f	8cc#\L	f	4G\	o-	4A\	o-	4e\	o-	4cc#\	o-	4a/	4ee\
.	.	.	16c#/L	.	16cc#\L	.	.	.	.	.	.	.	.	.	.	.
.	.	.	16A/JJ	.	16a\JJ	.	.	.	.	.	.	.	.	.	.	.
8F#\	6 x	.	8d/L	.	8dd\L	.	8F#\	-mnes	8A\	-mnes	8f#\	-mnes	8dd\	-mnes	8dd\	8ff#\
8r	.	.	8d/J	.	8dd\J	.	8r	.	8r	.	8r	.	8dd\	me-	8r	8r
!	!	!	!	!	!	!	!	!	!	!	!	!	!LO:LB:g=original	!	!	!
=42	=42	=42	=42	=42	=42	=42	=42	=42	=42	=42	=42	=42	=42	=42	=42	=42
!	!	!LO:DY:a:rj:t=p.:mod=%s	!	!LO:DY:a:rj:t=p&colon;:mod=%s	!	!LO:DY:a:t=p.:mod=%s	!	!	!	!	!	!	!	!	!	!
4C#/	6 5	p	16e/LL	p	16ee\LL	p	2r	.	2r	.	2r	.	16ee\LL	-di-	2r	2r
.	.	.	16f#/	.	16ff#\	.	.	.	.	.	.	.	16ff#\	.	.	.
.	.	.	16g/	.	16gg\	.	.	.	.	.	.	.	16gg\	.	.	.
.	.	.	16e/JJ	.	16ee\JJ	.	.	.	.	.	.	.	16ee\JJ	.	.	.
8D\	.	.	8f#/L	.	8ff#\L	.	.	.	.	.	.	.	8ff#\	.	.	.
8r	.	.	16f#/L	.	16ff#\L	.	.	.	.	.	.	.	16ff#\LL	-cent	.	.
.	.	.	16d/JJ	.	16dd\JJ	.	.	.	.	.	.	.	16dd\JJ	.	.	.
!	!	!	!LO:LB:g=original	!	!	!	!	!	!	!	!	!	!	!	!	!
=43	=43	=43	=43	=43	=43	=43	=43	=43	=43	=43	=43	=43	=43	=43	=43	=43
*	*	*	*	*	*	*	*	*ij	*	*ij	*	*ij	*	*	*	*
!	!	!LO:MO:mod=!LO&colon;DY&colon;ed=brack	!	!	!	!	!	!	!	!	!	!	!	!	!	!
!	!	!null	!	!	!	!	!	!	!	!	!	!	!	!	!	!
!	!	!LO:MO:null:mod=f	!	!LO:DY:a:t=for:mod=%s	!	!LO:DY:a:t=for.:mod=%s	!	!	!	!	!LO:SIC:s=4e	!	!	!	!	!
4G\	4 2	.	8c#/L	f	8cc#\L	f	4G\	o-	4A\	o-	4f#\	o-	4cc#\	o-	4a/	4ee\
.	.	.	16c#/L	.	16cc#\L	.	.	.	.	.	.	.	.	.	.	.
.	.	.	16A/JJ	.	16a\JJ	.	.	.	.	.	.	.	.	.	.	.
!	!	!	!	!	!	!	!	!	!	!	!LO:SIC:s=8f#	!	!	!	!	!
8F#\	6 x	.	8d/L	.	8dd\L	.	8F#\	-mnes	8A\	-mnes	8g\	-mnes	8dd\	-mnes	8dd\	8ff#\
*	*	*	*	*	*	*	*	*	*	*Xij	*	*Xij	*	*	*	*
8r	.	.	16e/L	.	16ee\L	.	8r	.	8r	.	8r	.	8r	.	8r	8r
.	.	.	16f#/JJ	.	16ff#\JJ	.	.	.	.	.	.	.	.	.	.	.
!	!	!	!	!	!	!	!	!	!	!	!LO:LB:g=original	!	!	!	!LO:LB:g=original	!
=44	=44	=44	=44	=44	=44	=44	=44	=44	=44	=44	=44	=44	=44	=44	=44	=44
*	*	*	*	*	*	*	*	*	*	*ij	*	*ij	*	*ij	*	*
8C#\L	6 5	.	16g/LL	.	16gg\LL	.	4C#/	o-	4A\	o-	4g\	o-	4ee\	o-	4ee\	4gg\
.	.	.	16a/	.	16aa\	.	.	.	.	.	.	.	.	.	.	.
8C#\	.	.	16g/	.	16gg\	.	.	.	.	.	.	.	.	.	.	.
!	!	!	!LO:SIC:s=16eJJ	!	!	!	!	!	!	!	!	!	!	!	!	!
.	.	.	16f#/JJ	.	16ee\JJ	.	.	.	.	.	.	.	.	.	.	.
!	!	!	!LO:SIC:s=8f#L	!	!	!	!	!	!	!	!LO:SIC:s=4f#	!	!	!	!LO:SIC:s=4dd	!
8D\	.	.	8g/L	.	8ff#\L	.	4D\	-mnes	4A\	-mnes	4e\	-mnes	4dd\	-mnes	4cc#\	4ff#\
*	*	*	*	*	*	*	*	*Xij	*	*Xij	*	*Xij	*	*Xij	*	*
8D\J	.	.	16f#/L	.	16ff#\L	.	.	.	.	.	.	.	.	.	.	.
.	.	.	16d/JJ	.	16dd\JJ	.	.	.	.	.	.	.	.	.	.	.
!	!	!	!	!	!	!	!	!	!	!	!	!	!	!	!	!LO:LB:g=original
=45	=45	=45	=45	=45	=45	=45	=45	=45	=45	=45	=45	=45	=45	=45	=45	=45
8A\L	x 3:	.	16c#/LL	.	16cc#\LL	.	8A\L	ge-	4A\	ge-	4e\	ge-	4cc#\	ge-	4a/	4ee\
.	.	.	16B/	.	16b\	.	.	.	.	.	.	.	.	.	.	.
8G\	.	.	16c#/	.	16cc#\	.	8G\J	.	.	.	.	.	.	.	.	.
.	.	.	16A/JJ	.	16a\JJ	.	.	.	.	.	.	.	.	.	.	.
8F#\	6 x	.	8d/L	.	8dd\L	.	8F#\L	-ne-	4A\	-ne-	4f#\	-ne-	4dd\	-ne-	4dd\	4ff#\
8D\J	.	.	16e/L	.	16ee\L	.	8D\J	.	.	.	.	.	.	.	.	.
.	.	.	16f#/JJ	.	16ff#\JJ	.	.	.	.	.	.	.	.	.	.	.
!	!	!	!	!	!LO:PB:g=original	!	!	!	!	!	!	!	!	!	!	!
=46	=46	=46	=46	=46	=46	=46	=46	=46	=46	=46	=46	=46	=46	=46	=46	=46
8C#\L	6: 5:	.	16g/LL	.	16gg\LL	.	4C#/	-ra-	4A\	-ra-	4g\	-ra-	4ee\	-ra-	4ee\	4gg\
.	.	.	16a/	.	16aa\	.	.	.	.	.	.	.	.	.	.	.
8C#\	.	.	16g/	.	16gg\	.	.	.	.	.	.	.	.	.	.	.
.	.	.	16e/JJ	.	16ee\JJ	.	.	.	.	.	.	.	.	.	.	.
8D\	.	.	8f#/L	.	8ff#\L	.	4D/	-ti-	4A\	-ti-	4f#\	-ti-	4dd\	-ti-	4dd\	4ff#\
8D\J	.	.	16f#/L	.	16ff#\L	.	.	.	.	.	.	.	.	.	.	.
.	.	.	16d/JJ	.	16dd\JJ	.	.	.	.	.	.	.	.	.	.	.
=47	=47	=47	=47	=47	=47	=47	=47	=47	=47	=47	=47	=47	=47	=47	=47	=47
!LO:TX:t=P:problem=mixed beam	!	!	!	!	!	!	!	!	!	!	!	!	!	!	!	!
8A\L	.	.	16c#/LL	.	16cc#\LL	.	4A\	-o-	4A\	-o-	4e\	-o-	4cc#\	-o-	4a/	4ee\
.	.	.	16d/	.	16dd\	.	.	.	.	.	.	.	.	.	.	.
8A\	.	.	16e/	.	16ee\	.	.	.	.	.	.	.	.	.	.	.
.	.	.	16c#/JJ	.	16cc#\JJ	.	.	.	.	.	.	.	.	.	.	.
!	!	!	!	!	!	!	!	!	!	!	!	!	!	!	!	!LO:SIC:s=4ee
8AA/	.	.	8A/L	.	8a/L	.	4AA/	-nes	4A\	-nes	4e\	-nes	4cc#\	-nes	4a/	4dd\
8AA/J	.	.	8A/J	.	8a/J	.	.	.	.	.	.	.	.	.	.	.
!LO:LB:g=original	!	!	!	!	!	!	!	!	!	!	!	!	!	!	!	!
=48	=48	=48	=48	=48	=48	=48	=48	=48	=48	=48	=48	=48	=48	=48	=48	=48
[<2D\	.	.	8d/L	.	8dd\L	.	8.D\L	qui-	8.d\L	qui-	8.d\L	qui-	8.dd\L	qui-	2d/	2dd\
.	.	.	16d/L	.	16dd\L	.	.	.	.	.	.	.	.	.	.	.
.	.	.	16f#/JJ	.	16ff#\JJ	.	16F#\Jk	.	16f#\Jk	.	16f#\Jk	.	16ff#\Jk	.	.	.
!	!	!	!	!	!	!	!	!	!LO:LB:g=original	!	!	!	!	!	!	!
.	.	.	8a/L	.	8aa\L	.	8A\	.	8a\	.	8a\	.	8aa\	.	.	.
.	.	.	8g/J	.	8gg\J	.	8G\	-a	8g\	-a	8g\	-a	8gg\	-a	.	.
!	!	!	!	!	!	!	!LO:LB:g=original	!	!	!	!	!	!LO:LB:g=original	!	!	!
=49	=49	=49	=49	=49	=49	=49	=49	=49	=49	=49	=49	=49	=49	=49	=49	=49
2D\_<	.	.	8e/L	.	8ee\L	.	8E\	fe-	8e\	fe-	8e\	fe-	8ee\	fe-	2d/	2dd\
.	.	.	8f#/J	.	8ff#\J	.	8F#\	-cit	8f#\	-cit	8f#\	-cit	8ff#\	-cit	.	.
.	.	.	16d/LL	.	16dd\LL	.	16D/LL	mi-	16d\LL	mi-	16d\LL	mi-	16dd\LL	mi-	.	.
.	.	.	16c#/	.	16cc#\	.	16C#/JJ	.	16c#\JJ	.	16c#\JJ	.	16cc#\JJ	.	.	.
.	.	.	16B/	.	16b\	.	16BB/LL	-hi	16B\LL	-hi	16B/LL	-hi	16b\LL	-hi	.	.
.	.	.	16A/JJ	.	16a\JJ	.	16AA/JJ	.	16A\JJ	.	16A/JJ	.	16a\JJ	.	.	.
!	!	!	!LO:LB:g=original	!	!	!	!	!	!	!	!LO:LB:g=original	!	!	!	!	!
=50	=50	=50	=50	=50	=50	=50	=50	=50	=50	=50	=50	=50	=50	=50	=50	=50
2D\_<	.	.	8d/L	.	8dd\L	.	8.D\L	ma-	8.d\L	ma-	8.d\L	ma-	8.dd\L	ma-	2d/	2dd\
.	.	.	16d/L	.	16dd\L	.	.	.	.	.	.	.	.	.	.	.
.	.	.	16f#/JJ	.	16ff#\JJ	.	16F#\Jk	.	16f#\Jk	.	16f#\Jk	.	16ff#\Jk	.	.	.
.	.	.	8a/L	.	8aa\L	.	8A\	-gna	8a\	-gna	8a\	-gna	8aa\	-gna	.	.
.	.	.	8g/J	.	8gg\J	.	8G\	qui	8g\	qui	8g\	qui	8gg\	qui	.	.
=51	=51	=51	=51	=51	=51	=51	=51	=51	=51	=51	=51	=51	=51	=51	=51	=51
2D\_<	.	.	8e/L	.	8ee\L	.	8E\L	po-	8e\L	po-	8e\L	po-	8ee\L	po-	2d/	2dd\
.	.	.	8f#/J	.	8ff#\J	.	8F#\J	.	8f#\J	.	8f#\J	.	8ff#\J	.	.	.
.	.	.	16d/LL	.	16dd\LL	.	16D/LL	.	16d\LL	.	16d\LL	.	16dd\LL	.	.	.
.	.	.	16c#/	.	16cc#\	.	16C#/JJ	.	16c#\JJ	.	16c#\JJ	.	16cc#\JJ	.	.	.
.	.	.	16B/	.	16b\	.	16BB/LL	-tens	16B\LL	-tens	16B/LL	-tens	16b\LL	-tens	.	.
.	.	.	16A/JJ	.	16a\JJ	.	16AA/JJ	.	16A\JJ	.	16A/JJ	.	16a\JJ	.	.	.
=52	=52	=52	=52	=52	=52	=52	=52	=52	=52	=52	=52	=52	=52	=52	=52	=52
!	!	!	!LO:SIC:s=[2f# [2a	!	!	!	!	!	!	!	!	!	!	!	!	!
2D\_<	.	.	2f#/ 2a/	.	8dd\L	.	4D\	eſt	4d\	est	4d\	est	4dd\	est	2f#/	2dd\
.	.	.	.	.	16ee\L	.	.	.	.	.	.	.	.	.	.	.
.	.	.	.	.	16ff#\JJ	.	.	.	.	.	.	.	.	.	.	.
.	.	.	.	.	8dd\L	.	4D\	et	4A\	et	4f#\	et	4dd\	et	.	.
.	.	.	.	.	16ff#\L	.	.	.	.	.	.	.	.	.	.	.
.	.	.	.	.	16aa\JJ	.	.	.	.	.	.	.	.	.	.	.
!	!	!	!	!	!LO:LB:g=original	!	!	!	!	!	!	!	!	!	!	!
=53	=53	=53	=53	=53	=53	=53	=53	=53	=53	=53	=53	=53	=53	=53	=53	=53
!	!	!	!LO:SIC:s=2f#_ 2a_	!	!	!	!	!LO:MO:mod=san-	!	!LO:MO:mod=san-	!	!LO:MO:mod=san-	!	!LO:MO:mod=san-	!	!
2D\_<	.	.	2f#/ 2a/	.	8ff#\L	.	4D\	San-	4A\	San-	4f#\	San-	4dd\	San-	2f#/	2dd\
.	.	.	.	.	16ff#\L	.	.	.	.	.	.	.	.	.	.	.
.	.	.	.	.	16dd\JJ	.	.	.	.	.	.	.	.	.	.	.
!	!	!	!	!	!LO:TX:t=P:problem=mixed beam	!	!	!	!	!LO:MO:mod=-ctum	!	!LO:MO:mod=-ctum	!	!	!	!
.	.	.	.	.	8ff#\L	.	4D\	-ctum	4A\	-ct(um)	4f#\	-ct(um)	4dd\	-ctum	.	.
.	.	.	.	.	8a/J	.	.	.	.	.	.	.	.	.	.	.
!	!	!	!	!	!	!	!	!	!	!	!	!	!LO:LB:g=original	!	!	!
=54	=54	=54	=54	=54	=54	=54	=54	=54	=54	=54	=54	=54	=54	=54	=54	=54
!	!	!	!LO:SIC:s=2f#_ 2a_	!	!	!	!	!	!	!	!	!	!	!	!	!
2D\_<	.	.	2f#/ 2a/	.	8dd\L	.	4D\	no-	4A\	no-	4f#\	no-	4dd\	no-	2f#/	2dd\
.	.	.	.	.	16ee\L	.	.	.	.	.	.	.	.	.	.	.
.	.	.	.	.	16ff#\JJ	.	.	.	.	.	.	.	.	.	.	.
.	.	.	.	.	8dd\L	.	4D\	-men	4A\	-men	4f#\	-men	4dd\	-men	.	.
.	.	.	.	.	16ff#\L	.	.	.	.	.	.	.	.	.	.	.
.	.	.	.	.	16aa\JJ	.	.	.	.	.	.	.	.	.	.	.
!	!	!	!	!	!	!	!	!	!LO:LB:g=original	!	!	!	!	!	!	!
=55	=55	=55	=55	=55	=55	=55	=55	=55	=55	=55	=55	=55	=55	=55	=55	=55
!	!	!	!LO:SIC:s=2f#] 2a]	!	!	!	!	!	!	!	!	!	!	!	!	!
2D\]	.	.	2f#/ 2a/	.	8ff#\L	.	4D\	e-	4A\	e-	4f#\	e-	4dd\	e-	2f#/	2dd\
.	.	.	.	.	16ff#\L	.	.	.	.	.	.	.	.	.	.	.
.	.	.	.	.	16dd\JJ	.	.	.	.	.	.	.	.	.	.	.
!	!	!	!	!	!	!	!	!LO:MO:mod=-jus	!	!LO:MO:mod=-jus	!	!LO:MO:mod=-jus	!	!LO:MO:mod=-jus	!	!
.	.	.	.	.	8a\L	.	4D\	-ius	4A\	-ius	4f#\	-ius	4dd\	-ius	.	.
.	.	.	.	.	8ff#\J	.	.	.	.	.	.	.	.	.	.	.
!	!	!	!	!	!	!	!LO:LB:g=original	!	!	!	!LO:LB:g=original	!	!	!	!LO:LB:g=original	!
=56	=56	=56	=56	=56	=56	=56	=56	=56	=56	=56	=56	=56	=56	=56	=56	=56
!LO:MO:mod=*tremolo	!	!	!LO:MO:mod=*tremolo	!	!	!	!	!	!	!	!	!	!	!	!	!
*null	*	*	*null	*	*	*	*	*	*	*	*	*	*	*	*	*
8D\L	.	.	8f#/L 8a/	.	16dd\LL	.	4D\	et	4A\	et	4f#\	et	4dd\	et	2f#/	2dd\
.	.	.	.	.	16ee\	.	.	.	.	.	.	.	.	.	.	.
8D\	.	.	8f#/ 8a/	.	16ff#\	.	.	.	.	.	.	.	.	.	.	.
.	.	.	.	.	16gg\JJ	.	.	.	.	.	.	.	.	.	.	.
8D\	.	.	8f#/ 8a/	.	16aa\LL	.	4D\	mi-	4A\	mi-	4f#\	mi-	4dd\	mi-	.	.
.	.	.	.	.	16bb\	.	.	.	.	.	.	.	.	.	.	.
8D\J	.	.	8f#/J 8a/	.	16aa\	.	.	.	.	.	.	.	.	.	.	.
.	.	.	.	.	16gg\JJ	.	.	.	.	.	.	.	.	.	.	.
=57	=57	=57	=57	=57	=57	=57	=57	=57	=57	=57	=57	=57	=57	=57	=57	=57
!LO:MO:mod=*null:null	!	!	!LO:MO:mod=*null:null	!	!	!	!	!	!	!	!	!	!	!	!	!
*tremolo	*	*	*tremolo	*	*	*	*	*	*	*	*	*	*	*	*	*
8D\L	.	.	8f#/L 8a/	.	8ff#\L	.	4D\	-se-	4A\	-se-	4f#\	-se-	4dd\	-se-	2f#/	2dd\
8D\	.	.	8f#/ 8a/	.	16ff#\L	.	.	.	.	.	.	.	.	.	.	.
.	.	.	.	.	16ee\JJ	.	.	.	.	.	.	.	.	.	.	.
8D\	.	.	8f#/ 8a/	.	8dd\L	.	4D\	-ri	4A\	-ri-	4f#\	-ri-	4dd\	-ri-	.	.
8D\J	.	.	8f#/J 8a/	.	8ff#\J	.	.	.	.	.	.	.	.	.	.	.
!LO:MO:mod=*null:null	!	!	!	!	!	!	!	!	!	!	!	!	!	!	!	!
*Xtremolo	*	*	*	*	*	*	*	*	*	*	*	*	*	*	*	*
!	!	!	!	!	!	!	!	!	!	!	!	!	!	!	!	!LO:LB:g=original
=58	=58	=58	=58	=58	=58	=58	=58	=58	=58	=58	=58	=58	=58	=58	=58	=58
8C#/L	6: 5:	.	8e/L 8a/	.	8.gg\L	.	4C#/	cor-	4A\	-cor-	4g\	-cor-	4ee\	-cor-	2a/	2ee\
8C#/	.	.	8e/ 8a/	.	.	.	.	.	.	.	.	.	.	.	.	.
.	.	.	.	.	16ee\Jk	.	.	.	.	.	.	.	.	.	.	.
8C#/	.	.	8e/ 8a/	.	16dd\LL	.	8C#/	-di-	8A\	-di-	8g\	-di-	8ee\	-di-	.	.
.	.	.	.	.	16cc#\	.	.	.	.	.	.	.	.	.	.	.
8C#/J	.	.	8e/J 8a/	.	16b\	.	8C#/	-a	8A\	-a	8g\	-a	8ee\	-a	.	.
.	.	.	.	.	16a\JJ	.	.	.	.	.	.	.	.	.	.	.
!LO:MO:mod=*Xtremolo	!	!	!	!	!	!	!	!	!	!	!	!	!	!	!	!
*null	*	*	*	*	*	*	*	*	*	*	*	*	*	*	*	*
=59	=59	=59	=59	=59	=59	=59	=59	=59	=59	=59	=59	=59	=59	=59	=59	=59
8D\L	.	.	8f#/L 8a/	.	8dd\L	.	4.D\	e-	4A\	e-	4f#\	e-	4dd\	e-	2f#/	2dd\
8D\	.	.	8f#/ 8a/	.	16ee\L	.	.	.	.	.	.	.	.	.	.	.
.	.	.	.	.	16ff#\JJ	.	.	.	.	.	.	.	.	.	.	.
!	!	!	!	!	!	!	!	!	!	!LO:MO:mod=-jus	!	!LO:MO:mod=-jus	!	!LO:MO:mod=-jus	!	!
8D\	.	.	8f#/ 8a/	.	8dd\L	.	.	.	4A\	-ius	4f#\	-ius	4dd\	-ius	.	.
!	!	!	!	!	!	!	!	!LO:MO:mod=-jus	!	!	!	!	!	!	!	!
8F#\J	.	.	8f#/J 8a/	.	8dd\J	.	8F#\	-ius	.	.	.	.	.	.	.	.
*	*	*	*Xtremolo	*	*	*	*	*	*	*	*	*	*	*	*	*
=60	=60	=60	=60	=60	=60	=60	=60	=60	=60	=60	=60	=60	=60	=60	=60	=60
8G\L	4 2	.	16c#/LL	.	16cc#\LL	.	8G\L	a	4A\	a	8e\L	a	4cc#\	a	4a/	4ee\
.	.	.	16A/	.	16a\	.	.	.	.	.	.	.	.	.	.	.
8E\	6 3	.	16B/	.	16b\	.	8E\J	.	.	.	8g\J	.	.	.	.	.
.	.	.	16c#/JJ	.	16cc#\JJ	.	.	.	.	.	.	.	.	.	.	.
!	!	!	!	!	!LO:LB:g=original	!	!	!	!	!	!	!	!	!	!	!
8F#\	6 x	.	16d/LL	.	16dd\LL	.	8F#\L	pro-	4A\	pro-	8f#\L	pro-	8dd\L	pro-	4dd\	4ff#\
.	.	.	16A/	.	16a\	.	.	.	.	.	.	.	.	.	.	.
8D\J	.	.	16d/	.	16dd\	.	8D\J	.	.	.	8a\J	.	8ff#\J	.	.	.
.	.	.	16f#/JJ	.	16ff#\JJ	.	.	.	.	.	.	.	.	.	.	.
!LO:LB:g=original	!	!	!LO:LB:g=original	!	!	!	!	!	!	!	!	!	!LO:LB:g=original	!	!	!
=61	=61	=61	=61	=61	=61	=61	=61	=61	=61	=61	=61	=61	=61	=61	=61	=61
!	!	!	!	!	!	!	!	!	!	!	!	!	!	!	!LO:SIC:s=4ee	!
8C#/L	6 5	.	16a/LL	.	16aa\LL	.	8C#/	-ge-	8A\	-ge-	8g\	-ge-	8ee\	-ge-	4dd\	4gg\
.	.	.	16g/	.	16gg\	.	.	.	.	.	.	.	.	.	.	.
8AA/J	.	.	16e/	.	16ee\	.	8AA/	-ni-	8A\	-ni-	8g\	-ni-	8ee\	-ni-	.	.
.	.	.	16g/JJ	.	16gg\JJ	.	.	.	.	.	.	.	.	.	.	.
8D\L	.	.	16f#/LL	.	16ff#\LL	.	8D\L	-e	4A\	-e	4f#\	-e	4dd\	-e	4dd\	4ff#\
.	.	.	16a/	.	16aa\	.	.	.	.	.	.	.	.	.	.	.
8F#\J	6 x	.	16f#/	.	16ff#\	.	8F#\J	.	.	.	.	.	.	.	.	.
.	.	.	16d/JJ	.	16dd\JJ	.	.	.	.	.	.	.	.	.	.	.
!	!	!	!	!	!	!	!	!	!	!	!LO:LB:g=original	!	!	!	!	!
=62	=62	=62	=62	=62	=62	=62	=62	=62	=62	=62	=62	=62	=62	=62	=62	=62
8G\L	4: 2:	.	16c#/LL	.	16cc#\LL	.	8G\L	in	4A\	in	8e\L	in	4cc#\	in	4a/	4ee\
.	.	.	16A/	.	16a\	.	.	.	.	.	.	.	.	.	.	.
8E\	.	.	16B/	.	16b\	.	8E\J	.	.	.	8g\J	.	.	.	.	.
.	.	.	16c#/JJ	.	16cc#\JJ	.	.	.	.	.	.	.	.	.	.	.
8F#\	6 x	.	16d/LL	.	16dd\LL	.	8F#\L	pro-	4A\	pro-	8f#\L	pro-	8dd\L	pro-	4dd\	4ff#\
.	.	.	16A/	.	16a\	.	.	.	.	.	.	.	.	.	.	.
8D\J	.	.	16d/	.	16dd\	.	8D\J	.	.	.	8a\J	.	8ff#\J	.	.	.
.	.	.	16f#/JJ	.	16ff#\JJ	.	.	.	.	.	.	.	.	.	.	.
!	!	!	!	!	!	!	!	!	!LO:LB:g=original	!	!	!	!	!	!	!
=63	=63	=63	=63	=63	=63	=63	=63	=63	=63	=63	=63	=63	=63	=63	=63	=63
8C#/L	6 5	.	16a/LL	.	16aa\LL	.	8C#/	-ge-	8A\	-ge-	8a\	-ge-	8ee\	-ge-	4ee\	4gg\
.	.	.	16g/	.	16gg\	.	.	.	.	.	.	.	.	.	.	.
8AA/J	.	.	16e/	.	16ee\	.	8AA/	-ni-	8A\	-ni-	8g\	-ni-	8ee\	-ni-	.	.
.	.	.	16g/JJ	.	16gg\JJ	.	.	.	.	.	.	.	.	.	.	.
!	!	!	!	!	!	!	!LO:LB:g=original	!	!	!	!	!LO:MO:mod=-es	!	!	!	!
8D\L	.	.	16f#/LL	.	16ff#\LL	.	8D\	-es	8A\	-es	8f#\	-e	8dd\	-es	4dd\	4ff#\
.	.	.	16a/	.	16aa\	.	.	.	.	.	.	.	.	.	.	.
8F#\J	6 x	.	16f#/	.	16ff#\	.	8F#\	ti-	8A\	ti-	8a\	ti-	8dd\	ti-	.	.
.	.	.	16d/JJ	.	16dd\JJ	.	.	.	.	.	.	.	.	.	.	.
=64	=64	=64	=64	=64	=64	=64	=64	=64	=64	=64	=64	=64	=64	=64	=64	=64
8G\L	6 x	.	8b/L	.	16ee\LL	.	8G\	-men-	8G/	-men-	8b\	-men-	8ee\	-men-	4ee\	4gg\
.	.	.	.	.	16ff#\	.	.	.	.	.	.	.	.	.	.	.
8G\	.	.	8b/	.	16gg\	.	8G\	-ti-	8G/	-ti-	8b\	-ti-	8ee\	-ti-	.	.
.	.	.	.	.	16ee\JJ	.	.	.	.	.	.	.	.	.	.	.
8F#\	6 x	.	8a/	.	16dd\LL	.	8F#\	-bus	8A\	-bus	8a\	-bus	8dd\	-bus	4dd\	4ff#\
.	.	.	.	.	16ee\	.	.	.	.	.	.	.	.	.	.	.
*	*	*	*	*	*	*	*	*ij	*	*ij	*	*ij	*	*	*	*
8F#\J	.	.	8a/J	.	16ff#\	.	8F#\	ti-	8A\	ti-	8a\	ti-	8dd\	ti-	.	.
.	.	.	.	.	16dd\JJ	.	.	.	.	.	.	.	.	.	.	.
=65	=65	=65	=65	=65	=65	=65	=65	=65	=65	=65	=65	=65	=65	=65	=65	=65
8G\L	6 x	.	8b/L	.	16ee\LL	.	8G\	-men-	8G/	-men-	8b\	-men-	8ee\	-men-	4ee\	4gg\
.	.	.	.	.	16ff#\	.	.	.	.	.	.	.	.	.	.	.
8G\	.	.	8b/	.	16gg\	.	8G\	-ti-	8G/	-ti-	8b\	-ti-	8ee\	-ti-	.	.
.	.	.	.	.	16ee\JJ	.	.	.	.	.	.	.	.	.	.	.
8F#\	6 x	.	8a/	.	16dd\LL	.	8F#\	-bus	8A\	-bus	8a\	-bus	8dd\	-bus	4dd\	4ff#\
*	*	*	*	*	*	*	*	*Xij	*	*Xij	*	*Xij	*	*	*	*
.	.	.	.	.	16ee\	.	.	.	.	.	.	.	.	.	.	.
8F#\J	.	.	8a/J	.	16ff#\	.	8F#\	e-	8A\	e-	8a\	e-	8dd\	e-	.	.
.	.	.	.	.	16dd\JJ	.	.	.	.	.	.	.	.	.	.	.
!	!	!	!	!	!	!	!	!	!	!	!LO:LB:g=original	!	!LO:LB:g=original	!	!LO:LB:g=original	!
=66	=66	=66	=66	=66	=66	=66	=66	=66	=66	=66	=66	=66	=66	=66	=66	=66
!LO:TX:t=P:problem=mixed beam	!	!	!	!	!	!	!	!	!	!	!	!	!	!	!	!
8G\L	6 x	.	8.b/L	.	16ee\LL	.	4G\	.	4B\	.	4g\	.	4ee\	.	4ee\	4gg\
.	.	.	.	.	16ff#\	.	.	.	.	.	.	.	.	.	.	.
8G\	.	.	.	.	16gg\	.	.	.	.	.	.	.	.	.	.	.
.	.	.	16g/Jk	.	16ee\JJ	.	.	.	.	.	.	.	.	.	.	.
!	!	!	!	!	!LO:LB:g=original	!	!	!	!	!	!	!	!	!	!	!
!	!	!	!	!	!	!	!LO:TX:t=P:problem=mixed beam	!	!	!	!	!	!	!	!	!
8A\	x 4	.	16g/LL	.	16ee\LL	.	8A\L	.	4A\	.	8f#\L	.	8dd\L	.	8dd/L	8ff#\L
.	.	.	16f#/	.	16dd\	.	.	.	.	.	.	.	.	.	.	.
8AA/J	x 3	.	16f#/	.	16dd\	.	8AA/J	.	.	.	8e\J	.	8cc#\J	.	8a/J	8ee\J
.	.	.	16e/JJ	.	16cc#\JJ	.	.	.	.	.	.	.	.	.	.	.
=67	=67	=67	=67	=67	=67	=67	=67	=67	=67	=67	=67	=67	=67	=67	=67	=67
!	!	!	!LO:SIC:s=[2f# [2a	!	!	!	!	!LO:MO:mod=-um.	!	!LO:MO:mod=-um.	!	!LO:MO:null:mod=-[um.]	!	!LO:MO:mod=-um.	!	!
[<2D\	.	.	2f#/ 2a/	.	16dd\LL	.	4D\	-um	4A\	-um	4f#\	.	4dd\	-um	2f#/	2dd\
.	.	.	.	.	16cc#\	.	.	.	.	.	.	.	.	.	.	.
.	.	.	.	.	16dd\	.	.	.	.	.	.	.	.	.	.	.
.	.	.	.	.	16ff#\JJ	.	.	.	.	.	.	.	.	.	.	.
.	.	.	.	.	8dd\L	.	4r	.	4r	.	4r	.	4r	.	.	.
.	.	.	.	.	16ff#\L	.	.	.	.	.	.	.	.	.	.	.
.	.	.	.	.	16gg\JJ	.	.	.	.	.	.	.	.	.	.	.
!	!	!	!	!	!	!	!	!	!	!	!	!	!	!	!	!LO:LB:g=original
=68	=68	=68	=68	=68	=68	=68	=68	=68	=68	=68	=68	=68	=68	=68	=68	=68
!	!	!	!LO:SIC:s=2f#_ 2a_	!	!	!	!	!	!	!	!	!	!	!	!	!
2D\_<	.	.	2f#/ 2a/	.	16aa\LL	.	1r	.	1r	.	1r	.	1r	.	2f#/	2dd\
.	.	.	.	.	16bb\	.	.	.	.	.	.	.	.	.	.	.
.	.	.	.	.	16aa\	.	.	.	.	.	.	.	.	.	.	.
.	.	.	.	.	16gg\JJ	.	.	.	.	.	.	.	.	.	.	.
.	.	.	.	.	8ff#\L	.	.	.	.	.	.	.	.	.	.	.
.	.	.	.	.	16ff#\L	.	.	.	.	.	.	.	.	.	.	.
.	.	.	.	.	16ee\JJ	.	.	.	.	.	.	.	.	.	.	.
=69	=69	=69	=69	=69	=69	=69	=69	=69	=69	=69	=69	=69	=69	=69	=69	=69
!	!	!	!LO:SIC:s=2f#_ 2a_	!	!	!	!	!	!	!	!	!	!	!	!	!
2D\_<	.	.	2f#/ 2a/	.	16dd\LL	.	.	.	.	.	.	.	.	.	2f#/	2dd\
.	.	.	.	.	16cc#\	.	.	.	.	.	.	.	.	.	.	.
.	.	.	.	.	16dd\	.	.	.	.	.	.	.	.	.	.	.
.	.	.	.	.	16ff#\JJ	.	.	.	.	.	.	.	.	.	.	.
.	.	.	.	.	8dd\L	.	.	.	.	.	.	.	.	.	.	.
.	.	.	.	.	16ff#\L	.	.	.	.	.	.	.	.	.	.	.
.	.	.	.	.	16gg\JJ	.	.	.	.	.	.	.	.	.	.	.
!LO:LB:g=original	!	!	!	!	!	!	!	!	!	!	!	!	!	!	!	!
=70	=70	=70	=70	=70	=70	=70	=70	=70	=70	=70	=70	=70	=70	=70	=70	=70
!LO:TX:t=P:problem=brak zakończenia ligatury	!	!	!LO:SIC:s=2f#] 2a]	!	!	!	!	!	!	!	!	!	!	!	!	!
2D\]	.	.	2f#/ 2a/	.	16aa\LL	.	2r	.	2r	.	2r	.	2r	.	2f#/	2dd\
.	.	.	.	.	16bb\	.	.	.	.	.	.	.	.	.	.	.
.	.	.	.	.	16aa\	.	.	.	.	.	.	.	.	.	.	.
.	.	.	.	.	16gg\JJ	.	.	.	.	.	.	.	.	.	.	.
.	.	.	.	.	4ff#\	.	.	.	.	.	.	.	.	.	.	.
==	==	==	==	==	==	==	==	==	==	==	==	==	==	==	==	==
*-	*-	*-	*-	*-	*-	*-	*-	*-	*-	*-	*-	*-	*-	*-	*-	*-
!!!system-decoration: [(g1)][(g2)][(g3)]<s9>
!!!RDF**kern: > = above
!!!RDF**kern: < = below
!!!RDF**kern: | = vertical stroke
!!!RDF**kern: @ = marked note, color=grey
!!!filter-modern: shed -k -e "s/([^a-gA-Gn#X-])[<>]/$1/g" | shed -X dynam -e "s/:a/:A/LX" | shed -e "s/TX(.*):t=P:/tx$1:t=P:/LG" | shed -e "s/:rj/:RJ/L" | sic -sq | modori -m | autostem -r | tie -s | humtr -p | shed -e "s/yy//"
!!!ENC: Berenika Jozajtis
!!!END: 2021-11-24
!!!ENC: Jędrzej Mróz
!!!END: 2021-12-02
!!!ENC-modern: Andrzej Kubiczek
!!!END-modern: 2022-07-26
!!!YEC: Copyright 2022 Narodowy Instytut Fryderyka Chopina (https://polishscores.org)
!!!YEM: Licence CC BY 4.0 (https://creativecommons.org/licenses/by/4.0)
